src/actions/24/format-text-code.svg

<svg xmlns="http://www.w3.org/2000/svg" viewBox="0 0 24 24">
  <defs id="defs3051">
    <style type="text/css" id="current-color-scheme">
      .ColorScheme-Text {
        color:#2e3440;
      }
      </style>
  </defs>
 <path style="fill:currentColor;fill-opacity:1;stroke:none" 
     d="M 13.5 4 L 9.5 19.753906 L 10.5 20 L 14.5 4.2460938 L 13.5 4 z M 8.2539062 7 L 4.2792969 11.644531 L 4 12 L 4.2792969 12.355469 L 8.2539062 17 L 9 16.291016 L 5.3359375 12 L 9 7.7089844 L 8.2539062 7 z M 15.746094 7 L 15 7.7089844 L 18.664062 12 L 15 16.291016 L 15.746094 17 L 19.720703 12.355469 L 20 12 L 19.720703 11.644531 L 15.746094 7 z "
     class="ColorScheme-Text"
     />
</svg>

<svg viewBox="0 0 24 24" xmlns="http://www.w3.org/2000/svg">
 <defs>
  <style type="text/css">.ColorScheme-Text {
        color:#2e3440;
      }</style>
 </defs>
 <path class="ColorScheme-Text" d="m13.5 4-4 15.754 1 0.24609 4-15.754-1-0.24609zm-5.2461 3-3.9746 4.6445-0.2793 0.35547 0.2793 0.35547 3.9746 4.6445 0.74609-0.70898-3.6641-4.291 3.6641-4.291-0.74609-0.70898zm7.4922 0-0.74609 0.70898 3.6641 4.291-3.6641 4.291 0.74609 0.70898 3.9746-4.6445 0.2793-0.35547-0.2793-0.35547-3.9746-4.6445z" fill="currentColor"/>
</svg>
